X:1
T:Prince William of Gloucester's Favorite
T:Prince William of Gloucester's Favorite
T:John Gow
C:John Gow
L:1/8
M:2/4
K:Eb
V:1 treble 
V:1
 c | B2 GE | DFB,A | GBeB | AFcA | GEDE | CA,AF | GDFD | (E2 E) :: B | eBgB | fBaB | g>abg | %13
 afdB |1 eBgB | fBaf | gefd | e2 e :|2 egce | dfec | dBc=A | B2 B |: A | GEEG | FDAF | GEEG | %26
 B>cde | G(EE)G | FDAF | GEFD | E2 E :| %31

